!!!SOCIAL_FUNCTION:	miscellaneous songs
!!!PDT:	1943
!!!OTL: No_96_A_Woman's_Song.krn
!!!REG: British Columbia
**kern	**kern
*staff2	*staff1
=1-	=1-
*clefF4	*clefF4
*k[b-e-a-d-]	*k[b-e-a-d-]
*M2/4	*M2/4
4GG/	4r
4GG/	8.r
.	16B-\
=2	=2
4GG/	(4e-\
4GG/	(12e-\L)
.	12d-\
.	12B-\J)
=3	=3
4GG/	4.e-\
4GG/	.
.	16r
.	16B-\
=4	=4
2r	8.e-\L
.	16e-\Jk
.	8.e-\L
.	16B-\Jk
=5!|:	=5!|:
2r	16c\LK
.	8.B-\J
.	8B-\
.	8r
=6	=6
2r	8.A-\L
.	16A-\Jk
.	8.B-\L
.	16c\Jk
=7	=7
2r	4B-\
.	8.A-\L
.	16E-\Jk
=8	=8
2r	16F\LK
.	8.E-\J
.	8.F\L
.	16F\Jk
=9	=9
2r	4.E-\
.	16r
.	16E-\
=10	=10
2r	4A-\
.	8.B-\L
.	16c\Jk
=11	=11
2r	4B-\
.	8.A-\L
.	16E-\Jk
=12	=12
2r	16F\LK
.	8.E-\J
.	8.F\L
.	16F\Jk
=13	=13
2r	4E-\
.	8.r
.	16B-\
=14	=14
2r	(4e-\
.	12e-\L)
.	12d-\
.	12B-\J
=15	=15
2r	4..e-\
.	16f\
=16	=16
2r	4e-\
.	12e-\L
.	12B-\
.	12B-\J
=17:|!	=17:|!
2r	4E-\
.	4r
==	==
*-	*-
